X:1
T:Title
%%score { ( 1 3 ) | ( 2 4 ) }
L:1/8
Q:1/4=90
M:6/8
K:Ab
V:1 treble nm="Grand Piano"
V:3 treble 
V:2 bass 
V:4 bass 
V:1
 [CE][CF][A,C] [CE][CF][A,C] | [CE]2 [CA] [Ec]3 | [CA]2 [CB] [CA]2 [CF] | A3 G3 | GBF GBF | %5
w: Samuel~W.~Beazley * * * * *|||||
 G2 B d3 | d2 B G2 F | [_CF]3 [=CE]3 | [CE][CF][A,C] [CE][CF][A,C] | [CE]2 [CA] [Ec]3 | c2 e d2 c | %11
w: ||||||
 [Fd]3 F3 | AGF AGF | E2 A c3 | [Ge]2 G F2 G | [CA]6 | c2 c cFC | c2 c cFC | .[Ec]2 F .[Ac]2 F | %19
w: ||||||||
 d2 d d3 | d2 d dFB, | d2 d dFB, | .d2 F .[Gd]2 F | c2 c c3 | c2 c cFC | c2 c cFC | %26
w: |||||||
 .[Ec]2 F .[_Gc]2 G | d2 d d3 | =d2 d dGA | e2 e eGF |[M:15/16] c->c[Ac] [ce]3 [Bd]3/2 | %31
w: |||||
[M:31/16] [EAc]/-[EAc]/-[EAc]/-[EAc]/-[EAc]/-[EAc]/-[EAc]/-[EAc]/-[EAc]/-[EAc]/-[EAc]/-[EAc]-<[EAc] z/ z/ z/ z/ z/ z/ z/ z/ z/ z/ z/ z/ z/ z/ z | %32
w: |
[M:3/4] [FA]6 | [CEA]6 |] %34
w: ||
V:2
 [A,,A,][A,,A,][A,,E,] [A,,A,][A,,A,][A,,E,] | [A,,A,]2 [A,,A,] [A,,A,]3 | %2
 [A,,E,]2 [A,,E,] [A,,E,]2 [A,,E,] | [B,,E,]3 [E,B,]3 | %4
 [E,B,D][E,G,D][E,G,D] [E,B,D][E,G,D][E,G,D] | [E,B,D]2 [E,G,D] [E,G,E]3 | %6
 [E,G,E]2 [E,G,D] [E,B,D]2 [E,D] | [A,,A,]6 | [A,,A,][A,,A,][A,,E,] [A,,A,][A,,A,][A,,E,] | %9
 [A,,A,]2 [A,,A,] [A,,A,]3 | [A,E_G]2 [A,CG] [A,B,G]2 [A,G] | z3 D3 | %12
 [=D,F,_C][D,G,C][D,A,C] [D,F,C][D,G,C][D,A,C] | [E,A,C]2 [E,A,C] [E,A,E]3 | %14
 [E,B,]2 [E,B,D] [E,B,D]2 [E,B,D] | [A,,A,]6 | [A,,A,]2 [A,,A,] .[A,,A,]3 | %17
 [A,,A,]2 [A,,A,] .[A,,A,]3 | .[A,,A,]3 .[A,,E,]3 | [B,,E,]2 [B,,E,] [E,B,]3 | %20
 .E2- .[E,G,E-] .[E,G,E]3 | .E2- .[E,G,E-] .[E,G,E]3 | .[E,G,E]3 .[E,B,]3 | %23
 [A,,A,]2 [A,,A,] [A,,A,]3 | [A,,A,]2 [A,,A,] .[A,,A,]3 | [A,,A,]2 [A,,A,] .[A,,A,]3 | %26
 .[A,,A,]3 .[A,,A,]3 | [D,A,]2 [D,A,] [D,A,]3 | [B,,B,]2 [B,,B,] .[B,,B,]3 | [E,C]2 [E,C] .[E,C]3 | %30
[M:15/16] [E,A,E]->[E,A,E][E,E] [E,E]3 [E,E]3/2 | %31
[M:31/16] [A,,A,]/-[A,,A,]/-[A,,A,]/-[A,,A,]/-[A,,A,]/-[A,,A,]/-[A,,A,]/-[A,,A,]/-[A,,A,]/-[A,,A,]/-[A,,A,]/-[A,,A,]-<[A,,A,] z/ z/ z/ z/ z/ z/ z/ z/ z/ z/ z/ z/ z/ z/ z | %32
[M:3/4] [D,D]6 | A,,6 |] %34
V:3
 x6 | x6 | x6 | D6 | x6 | x6 | x6 | x6 | x6 | x6 | x6 | x6 | x6 | x6 | x6 | x6 | .E6 | .E6 | x6 | %19
 G6 | x6 | x6 | x6 | E6 | .E6 | .E6 | x6 | F6 | .F6 | .A6 |[M:15/16] x15/2 |[M:31/16] x31/2 | %32
[M:3/4] x6 | x6 |] %34
V:4
 x6 | x6 | x6 | x6 | x6 | x6 | x6 | x6 | x6 | x6 | x6 | [D,A,]6 | x6 | x6 | x6 | x6 | x6 | x6 | %18
 x6 | x6 | .[E,G,]3 z3 | .[E,G,]3 z3 | x6 | x6 | x6 | x6 | x6 | x6 | x6 | x6 |[M:15/16] x15/2 | %31
[M:31/16] x31/2 |[M:3/4] x6 | x6 |] %34

